icons/desktop/20/hammer-20.svg

<svg width="20" height="20" viewBox="0 0 20 20" fill="none" xmlns="http://www.w3.org/2000/svg">
<path fill-rule="evenodd" clip-rule="evenodd" d="M11.1133 1.05991C11.8046 1.06552 12.4752 1.30023 13.0195 1.72788L14.6406 3.00132H17V2.87534C17 2.39209 17.3918 2.00034 17.875 2.00034C18.3582 2.00034 18.75 2.39209 18.75 2.87534V9.12632C18.7498 9.6094 18.3581 10.0013 17.875 10.0013C17.3919 10.0013 17.0002 9.6094 17 9.12632V8.73471H14.2666C13.9744 8.92394 13.5449 9.17158 12.9971 9.39878L12.9785 17.3548C12.9754 18.6649 12.0078 19.7893 10.6924 19.9554L10.6914 19.9544C10.471 19.9831 10.2398 19.9994 9.99902 19.9994C9.7553 19.9994 9.5236 19.9826 9.30859 19.9554C7.99387 19.7892 7.02682 18.664 7.02344 17.3558L7.00098 9.39682C6.59132 9.22729 6.16484 9.01217 5.7373 8.73471H1.875C1.39175 8.73471 1 8.34296 1 7.85971V6.05893C1.00003 3.60091 2.83042 1.52677 5.26953 1.22202C6.30507 1.0922 7.34718 1.03216 8.38867 1.0394L11.1133 1.05991ZM8.77344 17.3509L8.77734 17.4339C8.81601 17.8414 9.12923 18.1686 9.52734 18.2191C9.67624 18.2379 9.83488 18.2494 9.99902 18.2494C10.1681 18.2494 10.3249 18.2389 10.4688 18.2201L10.4736 18.2191C10.8999 18.1651 11.2274 17.7966 11.2285 17.3509L11.2461 9.8978C10.8577 9.96097 10.4417 10.0003 10 10.0003C9.7405 10.0003 9.30187 9.98596 8.75293 9.89585L8.77344 17.3509ZM8.37598 2.7894C7.41018 2.78271 6.44507 2.83829 5.4873 2.95835C3.92454 3.15368 2.75003 4.48307 2.75 6.05893V6.98471H6C6.17999 6.98471 6.35564 7.04045 6.50293 7.14389C7.9775 8.17994 9.4735 8.25034 10 8.25034C11.802 8.25034 13.0661 7.44659 13.4971 7.14389L13.6123 7.07554C13.7323 7.01622 13.8649 6.98471 14 6.98471H17V4.75132H14.3369C14.1409 4.7513 13.95 4.68494 13.7959 4.56382L11.9385 3.10386C11.6989 2.91562 11.4031 2.81236 11.0986 2.80991L8.37598 2.7894Z" fill="black"/>
</svg>

<!-- This Source Code Form is subject to the terms of the Mozilla Public
   - License, v. 2.0. If a copy of the MPL was not distributed with this
   - file, You can obtain one at http://mozilla.org/MPL/2.0/. -->
<svg xmlns="http://www.w3.org/2000/svg" width="20" height="20" fill="context-fill" fill-opacity="context-fill-opacity" viewBox="0 0 20 20">
    <path fill-rule="evenodd" d="M11.113 1.06c.692.006 1.362.24 1.907.668L14.64 3H17v-.126a.875.875 0 0 1 1.75 0v6.251a.875.875 0 0 1-1.75 0v-.391h-2.733a8 8 0 0 1-1.27.664l-.018 7.956a2.62 2.62 0 0 1-2.287 2.6 5.4 5.4 0 0 1-1.383 0 2.62 2.62 0 0 1-2.286-2.6l-.022-7.958a8 8 0 0 1-1.264-.662H1.875A.875.875 0 0 1 1 7.86V6.059a4.875 4.875 0 0 1 4.27-4.837q1.554-.194 3.119-.183zm-2.34 16.29.004.084a.87.87 0 0 0 .75.785 3.8 3.8 0 0 0 .942.001h.005a.87.87 0 0 0 .755-.87l.017-7.452A8 8 0 0 1 10 10c-.26 0-.698-.014-1.247-.104zM8.376 2.79a22 22 0 0 0-2.889.168 3.126 3.126 0 0 0-2.737 3.1v.927H6c.18 0 .356.055.503.159A6.14 6.14 0 0 0 10 8.25a6.14 6.14 0 0 0 3.497-1.106l.115-.068c.12-.06.253-.091.388-.091h3V4.75h-2.663a.88.88 0 0 1-.541-.187l-1.857-1.46a1.38 1.38 0 0 0-.84-.294z" clip-rule="evenodd" />
</svg>
